src/assets/images/figma-icon.svg

<svg width="16" height="21" viewBox="0 0 16 21" fill="none" xmlns="http://www.w3.org/2000/svg">
<path d="M0.708009 4.24992C0.708009 3.14485 1.147 2.08504 1.9284 1.30364C2.7098 0.522239 3.76961 0.083252 4.87468 0.083252H11.1247C11.971 0.0831993 12.7973 0.340893 13.4936 0.82204C14.1899 1.30319 14.7232 1.98497 15.0224 2.77666C15.3217 3.56835 15.3728 4.4324 15.1689 5.25383C14.9649 6.07525 14.5157 6.8151 13.8809 7.37492C14.6573 8.05806 15.1519 9.00552 15.2686 10.0331C15.3852 11.0606 15.1156 12.0948 14.5121 12.9346C13.9086 13.7744 13.0143 14.3598 12.0032 14.5769C10.9921 14.794 9.9364 14.6273 9.04134 14.1093V16.7499C9.0413 17.4462 8.8668 18.1313 8.53377 18.7427C8.20075 19.3541 7.71982 19.8724 7.13492 20.25C6.55003 20.6277 5.87982 20.8528 5.18552 20.9047C4.49123 20.9567 3.79498 20.8338 3.1604 20.5474C2.52583 20.2609 1.97314 19.82 1.55285 19.265C1.13256 18.7099 0.858054 18.0584 0.754423 17.3699C0.650792 16.6814 0.721336 15.9779 0.959609 15.3237C1.19788 14.6695 1.59629 14.0855 2.11843 13.6249C1.67511 13.2339 1.32008 12.753 1.0769 12.2142C0.833725 11.6754 0.707976 11.091 0.708009 10.4999C0.707976 9.90879 0.833725 9.32442 1.0769 8.78563C1.32008 8.24683 1.67511 7.76595 2.11843 7.37492C1.67511 6.98389 1.32008 6.503 1.0769 5.96421C0.833725 5.42542 0.707976 4.84105 0.708009 4.24992ZM6.95801 8.41658H4.87468C4.32214 8.41658 3.79224 8.63608 3.40154 9.02678C3.01084 9.41748 2.79134 9.94738 2.79134 10.4999C2.79134 11.0525 3.01084 11.5824 3.40154 11.9731C3.79224 12.3638 4.32214 12.5833 4.87468 12.5833H6.95801V8.41658ZM9.04134 10.4999C9.04134 11.0525 9.26084 11.5824 9.65154 11.9731C10.0422 12.3638 10.5721 12.5833 11.1247 12.5833C11.6772 12.5833 12.2071 12.3638 12.5978 11.9731C12.9885 11.5824 13.208 11.0525 13.208 10.4999C13.208 9.94738 12.9885 9.41748 12.5978 9.02678C12.2071 8.63608 11.6772 8.41658 11.1247 8.41658C10.5721 8.41658 10.0422 8.63608 9.65154 9.02678C9.26084 9.41748 9.04134 9.94738 9.04134 10.4999ZM11.1247 6.33325C11.6772 6.33325 12.2071 6.11376 12.5978 5.72306C12.9885 5.33236 13.208 4.80245 13.208 4.24992C13.208 3.69738 12.9885 3.16748 12.5978 2.77678C12.2071 2.38608 11.6772 2.16659 11.1247 2.16659H9.04134V6.33325H11.1247ZM4.87468 2.16659C4.32214 2.16659 3.79224 2.38608 3.40154 2.77678C3.01084 3.16748 2.79134 3.69738 2.79134 4.24992C2.79134 4.80245 3.01084 5.33236 3.40154 5.72306C3.79224 6.11376 4.32214 6.33325 4.87468 6.33325H6.95801V2.16659H4.87468ZM6.95801 14.6666H4.87468C4.46263 14.6666 4.05984 14.7888 3.71724 15.0177C3.37464 15.2466 3.10761 15.572 2.94993 15.9527C2.79224 16.3333 2.75099 16.7522 2.83137 17.1564C2.91176 17.5605 3.11018 17.9317 3.40154 18.2231C3.6929 18.5144 4.06411 18.7128 4.46824 18.7932C4.87236 18.8736 5.29125 18.8323 5.67193 18.6747C6.05261 18.517 6.37798 18.25 6.6069 17.9074C6.83582 17.5648 6.95801 17.162 6.95801 16.7499V14.6666Z" fill="white"/>
</svg>

<svg width="16" height="21" fill="none" xmlns="http://www.w3.org/2000/svg"><path d="M.708 4.25A4.167 4.167 0 0 1 4.875.083h6.25a4.167 4.167 0 0 1 2.756 7.292 4.167 4.167 0 0 1-4.84 6.734v2.64a4.166 4.166 0 1 1-6.923-3.124 4.166 4.166 0 0 1 0-6.25A4.167 4.167 0 0 1 .708 4.25zm6.25 4.167H4.875a2.083 2.083 0 0 0 0 4.166h2.083V8.417zM9.041 10.5a2.083 2.083 0 1 0 4.167 0 2.083 2.083 0 0 0-4.167 0zm2.084-4.167a2.083 2.083 0 0 0 0-4.166H9.04v4.166h2.084zm-6.25-4.166a2.083 2.083 0 1 0 0 4.166h2.083V2.167H4.875zm2.083 12.5H4.875a2.083 2.083 0 1 0 2.083 2.083v-2.083z" fill="#fff"/></svg>
